docs/img/icons/form/lamp.svg

<svg width="30" height="24" viewBox="0 0 30 24" fill="none" xmlns="http://www.w3.org/2000/svg">
<path d="M24.5332 1.82949C21.0595 0.295748 16.4867 -0.31457 11.9896 0.154546C5.93533 0.785976 1.07286 3.52418 0.165049 6.81349C-0.575426 9.49768 1.20438 12.1783 4.9262 13.9846C6.60314 14.7983 7.61483 15.9705 7.77552 17.2854C7.77859 17.3093 7.78729 17.3323 7.79701 17.355V21.4784C7.79701 21.7054 8.14038 21.8897 8.56461 21.8897H9.32964C9.64129 23.0848 11.2809 24 13.2556 24H16.7405C18.7153 24 20.3544 23.0848 20.666 21.8897H21.4311C21.8548 21.8897 22.1987 21.7054 22.1987 21.4784V17.2892C22.1987 17.2884 22.1992 17.2876 22.1992 17.2865C22.1992 16.0631 23.2359 14.8817 25.1191 13.9599C28.2212 12.4415 30 10.2818 30 8.03494C30.0005 5.62548 28.0078 3.36351 24.5332 1.82949ZM12.2839 9.63477H11.1043C10.4539 9.63477 9.92479 9.35127 9.92479 9.00279C9.92479 8.65431 10.4539 8.37081 11.1043 8.37081C11.7547 8.37081 12.2839 8.65431 12.2839 9.00279V9.63477ZM17.7128 9.00279C17.7128 8.65431 18.242 8.37081 18.8929 8.37081C19.5433 8.37081 20.0724 8.65431 20.0724 9.00279C20.0724 9.35127 19.5433 9.63477 18.8929 9.63477H17.7144L17.7128 9.00279ZM17.2507 17.6684H20.664V21.0671H19.9614C19.9598 21.0671 19.9583 21.0669 19.9563 21.0669C19.9542 21.0669 19.9532 21.0671 19.9511 21.0671H10.045C10.0435 21.0671 10.042 21.0669 10.0399 21.0669C10.0379 21.0669 10.0369 21.0671 10.0348 21.0671H9.33271V17.6684H16.6842M13.8191 16.8459V10.4573H16.1817L16.1991 16.8459H13.8191ZM16.7405 23.1775H13.2556C12.1104 23.1775 11.1488 22.628 10.8827 21.8897H19.1129C18.8473 22.628 17.8858 23.1775 16.7405 23.1775ZM24.0839 13.3529C22.1025 14.3226 20.9296 15.5499 20.71 16.8459H17.7338L17.7169 10.4573H18.8929C20.3897 10.4573 21.6076 9.80476 21.6076 9.00279C21.6076 8.20082 20.3897 7.54828 18.8929 7.54828C17.3955 7.54828 16.1776 8.20082 16.1776 9.00334L16.1792 9.63477H13.8191V9.00279C13.8191 8.20082 12.6011 7.54828 11.1043 7.54828C9.60751 7.54828 8.38959 8.20082 8.38959 9.00279C8.38959 9.80476 9.60751 10.4573 11.1043 10.4573H12.2839V16.8459H9.22781C8.90235 15.4736 7.76221 14.2508 5.95631 13.3748C2.61573 11.7533 1.01811 9.34551 1.68336 6.93357C2.49752 3.98343 6.85594 1.5279 12.2823 0.961724C16.3291 0.54004 20.4383 1.0873 23.5558 2.46421C26.6753 3.84141 28.4643 5.87196 28.4643 8.03522C28.4653 10.0515 26.8682 11.9899 24.0839 13.3529Z" fill="#00C35B"/>
</svg>

<svg width="30" height="24" fill="none" xmlns="http://www.w3.org/2000/svg"><path d="M24.533 1.83C21.06.295 16.487-.316 11.99.154 5.935.786 1.073 3.525.165 6.813c-.74 2.685 1.04 5.365 4.761 7.172 1.677.813 2.689 1.986 2.85 3.3a.265.265 0 00.021.07v4.123c0 .227.343.412.768.412h.765c.31 1.195 1.95 2.11 3.926 2.11h3.485c1.974 0 3.613-.915 3.925-2.11h.765c.424 0 .768-.185.768-.412v-4.191c0-1.223 1.037-2.404 2.92-3.326C28.221 12.44 30 10.282 30 8.035c0-2.41-1.992-4.671-5.467-6.206zm-12.25 7.805h-1.179c-.65 0-1.18-.284-1.18-.632 0-.349.53-.632 1.18-.632.65 0 1.18.283 1.18.632v.632zm5.43-.632c0-.349.529-.632 1.18-.632.65 0 1.18.283 1.18.632 0 .348-.53.632-1.18.632h-1.179l-.001-.632zm-.462 8.665h3.413v3.4h-.703l-.005-.001H9.333v-3.399h7.351m-2.865-.822v-6.389h2.363l.017 6.389h-2.38zm2.921 6.331h-3.484c-1.146 0-2.107-.549-2.373-1.287h8.23c-.266.738-1.227 1.287-2.372 1.287zm7.344-9.824c-1.982.97-3.154 2.197-3.374 3.493h-2.976l-.017-6.389h1.176c1.497 0 2.715-.652 2.715-1.454 0-.802-1.218-1.455-2.715-1.455-1.498 0-2.715.653-2.715 1.455l.001.632h-2.36v-.632c0-.802-1.218-1.455-2.715-1.455-1.496 0-2.714.653-2.714 1.455s1.218 1.454 2.714 1.454h1.18v6.389H9.228c-.326-1.372-1.466-2.595-3.272-3.471-3.34-1.622-4.938-4.03-4.273-6.441.815-2.95 5.173-5.406 10.6-5.972 4.046-.422 8.155.125 11.273 1.502 3.12 1.377 4.908 3.408 4.908 5.571.001 2.017-1.596 3.955-4.38 5.318z" fill="#00C35B"/></svg>
